public/lightgithub.svg

<svg fill="none" height="75" viewBox="0 0 75 75" width="75" xmlns="http://www.w3.org/2000/svg"><path d="m37.5 6.25c-4.1038 0-8.1674.80831-11.9589 2.37876-3.7914 1.57044-7.2364 3.87234-10.1382 6.77414-5.8605 5.8605-9.1529 13.8091-9.1529 22.0971 0 13.8125 8.9688 25.5313 21.375 29.6875 1.5625.25 2.0625-.7187 2.0625-1.5625 0-.7187 0-2.6875 0-5.2812-8.6563 1.875-10.5-4.1876-10.5-4.1876-1.4375-3.625-3.4687-4.5937-3.4687-4.5937-2.8438-1.9375.2187-1.875.2187-1.875 3.125.2188 4.7812 3.2188 4.7812 3.2188 2.7188 4.75 7.3125 3.3437 9.0938 2.5937.2812-2.0312 1.0937-3.4062 1.9687-4.1875-6.9375-.7812-14.2187-3.4687-14.2187-15.375 0-3.4687 1.1875-6.25 3.2187-8.4687-.3125-.7813-1.4062-4.0313.3125-8.25 0 0 2.625-.8438 8.5938 3.1875 2.4687-.6875 5.1562-1.0313 7.8125-1.0313 2.6562 0 5.3437.3438 7.8125 1.0313 5.9687-4.0313 8.5937-3.1875 8.5937-3.1875 1.7188 4.2187.625 7.4687.3125 8.25 2.0313 2.2187 3.2188 5 3.2188 8.4687 0 11.9375-7.3125 14.5625-14.2813 15.3438 1.125.9687 2.1563 2.875 2.1563 5.7812v8.5625c0 .8438.5 1.8438 2.0937 1.5625 12.4063-4.1875 21.3438-15.875 21.3438-29.6875 0-4.1038-.8083-8.1674-2.3788-11.9589-1.5704-3.7914-3.8723-7.2364-6.7741-10.1382s-6.3468-5.2037-10.1382-6.77414c-3.7915-1.57045-7.8551-2.37876-11.9589-2.37876z" fill="#d1d5db"/></svg>

<svg width="75" height="75" viewBox="0 0 75 75" fill="none" xmlns="http://www.w3.org/2000/svg">
<path d="M37.5 6.25C33.3962 6.25 29.3326 7.05831 25.5411 8.62876C21.7497 10.1992 18.3047 12.5011 15.4029 15.4029C9.5424 21.2634 6.25 29.212 6.25 37.5C6.25 51.3125 15.2188 63.0313 27.625 67.1875C29.1875 67.4375 29.6875 66.4688 29.6875 65.625C29.6875 64.9063 29.6875 62.9375 29.6875 60.3438C21.0312 62.2188 19.1875 56.1562 19.1875 56.1562C17.75 52.5312 15.7188 51.5625 15.7188 51.5625C12.875 49.625 15.9375 49.6875 15.9375 49.6875C19.0625 49.9063 20.7187 52.9063 20.7187 52.9063C23.4375 57.6563 28.0312 56.25 29.8125 55.5C30.0937 53.4688 30.9062 52.0938 31.7812 51.3125C24.8437 50.5313 17.5625 47.8438 17.5625 35.9375C17.5625 32.4688 18.75 29.6875 20.7812 27.4688C20.4687 26.6875 19.375 23.4375 21.0937 19.2188C21.0937 19.2188 23.7187 18.375 29.6875 22.4063C32.1562 21.7188 34.8437 21.375 37.5 21.375C40.1562 21.375 42.8437 21.7188 45.3125 22.4063C51.2812 18.375 53.9062 19.2188 53.9062 19.2188C55.625 23.4375 54.5312 26.6875 54.2187 27.4688C56.25 29.6875 57.4375 32.4688 57.4375 35.9375C57.4375 47.875 50.125 50.5 43.1562 51.2813C44.2812 52.25 45.3125 54.1563 45.3125 57.0625C45.3125 61.25 45.3125 64.625 45.3125 65.625C45.3125 66.4688 45.8125 67.4688 47.4062 67.1875C59.8125 63 68.75 51.3125 68.75 37.5C68.75 33.3962 67.9417 29.3326 66.3712 25.5411C64.8008 21.7497 62.4989 18.3047 59.5971 15.4029C56.6953 12.5011 53.2503 10.1992 49.4589 8.62876C45.6674 7.05831 41.6038 6.25 37.5 6.25Z" fill="#D1D5DB"/>
</svg>
